gnome/icons/Varda/apps/scalable/totem.svg

<?xml version="1.0" encoding="UTF-8" standalone="no"?>
<svg
   xmlns:dc="http://purl.org/dc/elements/1.1/"
   xmlns:cc="http://creativecommons.org/ns#"
   xmlns:rdf="http://www.w3.org/1999/02/22-rdf-syntax-ns#"
   xmlns:svg="http://www.w3.org/2000/svg"
   xmlns="http://www.w3.org/2000/svg"
   xmlns:sodipodi="http://sodipodi.sourceforge.net/DTD/sodipodi-0.dtd"
   xmlns:inkscape="http://www.inkscape.org/namespaces/inkscape"
   width="64px"
   height="64px"
   viewBox="0 0 64 64"
   version="1.1"
   id="svg11"
   sodipodi:docname="org.gnome.Totem.svg"
   inkscape:version="1.0.2 (e86c870879, 2021-01-15)">
  <metadata
     id="metadata17">
    <rdf:RDF>
      <cc:Work
         rdf:about="">
        <dc:format>image/svg+xml</dc:format>
        <dc:type
           rdf:resource="http://purl.org/dc/dcmitype/StillImage" />
      </cc:Work>
    </rdf:RDF>
  </metadata>
  <defs
     id="defs15" />
  <sodipodi:namedview
     pagecolor="#ffffff"
     bordercolor="#666666"
     borderopacity="1"
     objecttolerance="10"
     gridtolerance="10"
     guidetolerance="10"
     inkscape:pageopacity="0"
     inkscape:pageshadow="2"
     inkscape:window-width="2560"
     inkscape:window-height="1403"
     id="namedview13"
     showgrid="false"
     inkscape:zoom="15.75"
     inkscape:cx="32"
     inkscape:cy="32"
     inkscape:window-x="0"
     inkscape:window-y="0"
     inkscape:window-maximized="1"
     inkscape:current-layer="surface1" />
  <g
     id="surface1">
    <path
       style="fill:#349f97;fill-opacity:1;fill-rule:nonzero;stroke:none"
       d="m 31.75,11.640625 v 41.21875 L 53.222656,40.460938 c 0.792969,-0.417969 1.53125,-0.949219 2.1875,-1.59375 0.02344,-0.02734 0.04687,-0.05078 0.07031,-0.07422 0.01953,-0.01953 0.03906,-0.03516 0.05469,-0.05469 1.65625,-1.683593 2.585938,-3.914062 2.652344,-6.214843 0,-0.01172 0,-0.02734 0,-0.03906 0,-0.04687 0.0039,-0.09766 0.0039,-0.144531 0,-0.03125 0,-0.05859 0,-0.08984 0,-0.03125 0,-0.05859 0,-0.08984 0,-0.04687 -0.0039,-0.09766 -0.0039,-0.144531 0,-0.01172 0,-0.02734 0,-0.03906 -0.06641,-2.300781 -0.996094,-4.53125 -2.652344,-6.214843 -0.01563,-0.01953 -0.03516,-0.03516 -0.05469,-0.05469 -0.02344,-0.02344 -0.04687,-0.04687 -0.07031,-0.07422 -0.65625,-0.644531 -1.394531,-1.175781 -2.1875,-1.59375 z m 0,0"
       id="path2" />
    <path
       style="fill:#257b76;fill-opacity:1;fill-rule:nonzero;stroke:none"
       d="m 15.121094,3.15625 -7.34375,55.261719 c 0.5625,0.601562 1.203125,1.128906 1.910156,1.5625 0.00781,0.0078 0.015625,0.01172 0.027344,0.01953 0.039062,0.02344 0.082031,0.05078 0.125,0.07422 0.027344,0.01563 0.050781,0.03125 0.078125,0.04687 0.027343,0.01563 0.050781,0.02734 0.074219,0.04297 0.042968,0.02344 0.089843,0.04688 0.132812,0.07031 0.0078,0.0078 0.01953,0.01172 0.02734,0.01563 2.027344,1.09375 4.425781,1.410156 6.714844,0.816406 0.01953,-0.0078 0.03906,-0.01172 0.05859,-0.01563 0.03906,-0.01172 0.07422,-0.02344 0.113281,-0.03125 0.886719,-0.246093 1.714844,-0.617187 2.472657,-1.09375 l 16.980469,-9.804687 c 0.0078,-0.0078 0.01953,-0.01563 0.02734,-0.01563 l 0.105469,-0.0625 2.148438,-1.242188 c 2.15625,-1.691406 3.539062,-4.324219 3.539062,-7.289062 v -6.546875 c 0.0039,-0.699219 0.01172,-1.402344 0.02734,-2.105469 0.238281,-4.183594 3.667968,-7.882813 7.820312,-8.441406 1.390625,-0.210938 2.832032,-0.105469 4.175782,0.3125 -0.355469,-0.257813 -0.726563,-0.488281 -1.113282,-0.691407 L 19.511719,4.574219 C 18.753906,4.097656 17.925781,3.726562 17.039062,3.480469 17,3.472656 16.964844,3.460938 16.925781,3.449219 16.90625,3.445312 16.886719,3.441406 16.867188,3.433594 16.289062,3.285156 15.707031,3.191406 15.121094,3.15625 Z M 42.3125,38.863281 c 0.0039,1.039063 0.0078,-1.039062 0,0 z m 0,0"
       id="path4" />
    <path
       style="fill:#733447;fill-opacity:1;fill-rule:nonzero;stroke:none"
       d="m 14.574219,3.136719 c 0,0.00391 0,0.00781 0,0.00781 -0.0078,0 -0.01563,0 -0.02344,0 -5.128906,0 -9.257812,4.132813 -9.257812,9.261719 v 39.6875 c 0,5.128906 4.128906,9.261719 9.257812,9.261719 5.132813,0 9.261719,-4.132813 9.261719,-9.261719 V 30.925781 c 0.0039,-1.039062 0.0039,-2.078125 0,-3.117187 v -3.425782 c 0.0039,-0.703124 0.01172,-1.40625 0.02734,-2.109374 0.238281,-4.179688 3.667968,-7.882813 7.820312,-8.4375 1.613282,-0.246094 3.292969,-0.06641 4.816406,0.535156 C 30.871094,11.144531 25.28125,7.890625 19.667969,4.679688 19.335938,4.460938 18.992188,4.261719 18.628906,4.085938 c 0,-0.00391 0,-0.00391 0,-0.00391 C 18.242188,3.894531 17.835938,3.730469 17.421875,3.597656 17.414062,3.59375 17.410156,3.59375 17.40625,3.589844 17.351562,3.574219 17.300781,3.558594 17.25,3.542969 17.207031,3.53125 17.164062,3.515625 17.121094,3.503906 17.105469,3.5 17.089844,3.496094 17.074219,3.492188 c -0.8125,-0.230469 -1.65625,-0.351563 -2.5,-0.355469 z m 0,0"
       id="path6" />
    <path
       style="fill:#93394a;fill-opacity:1;fill-rule:nonzero;stroke:none"
       d="m 5.292969,33.574219 v 19.84375 h 0.09375 c 0.636719,4.496093 4.484375,7.9375 9.164062,7.9375 5.132813,0 9.261719,-4.132813 9.261719,-9.261719 0,-10.582031 -14.550781,-6.613281 -18.519531,-18.519531 z m 0,0"
       id="path8" />
  </g>
</svg>

<?xml version="1.0" encoding="UTF-8"?>
<svg xmlns="http://www.w3.org/2000/svg" xmlns:xlink="http://www.w3.org/1999/xlink" width="64px" height="64px" viewBox="0 0 64 64" version="1.1">
<g id="surface1">
<path style=" stroke:none;fill-rule:nonzero;fill:rgb(30.19608%,81.568629%,88.235295%);fill-opacity:1;" d="M 31.75 11.640625 L 31.75 52.859375 L 53.222656 40.460938 C 54.015625 40.042969 54.753906 39.511719 55.410156 38.867188 C 55.433594 38.839844 55.457031 38.816406 55.480469 38.792969 C 55.5 38.773438 55.519531 38.757812 55.535156 38.738281 C 57.191406 37.054688 58.121094 34.824219 58.1875 32.523438 C 58.1875 32.511719 58.1875 32.496094 58.1875 32.484375 C 58.1875 32.4375 58.191406 32.386719 58.191406 32.339844 C 58.191406 32.308594 58.191406 32.28125 58.191406 32.25 C 58.191406 32.21875 58.191406 32.191406 58.191406 32.160156 C 58.191406 32.113281 58.1875 32.0625 58.1875 32.015625 C 58.1875 32.003906 58.1875 31.988281 58.1875 31.976562 C 58.121094 29.675781 57.191406 27.445312 55.535156 25.761719 C 55.519531 25.742188 55.5 25.726562 55.480469 25.707031 C 55.457031 25.683594 55.433594 25.660156 55.410156 25.632812 C 54.753906 24.988281 54.015625 24.457031 53.222656 24.039062 Z M 31.75 11.640625 "/>
<path style=" stroke:none;fill-rule:nonzero;fill:rgb(25.882354%,64.705884%,96.078432%);fill-opacity:1;" d="M 15.121094 3.15625 L 7.777344 58.417969 C 8.339844 59.019531 8.980469 59.546875 9.6875 59.980469 C 9.695312 59.988281 9.703125 59.992188 9.714844 60 C 9.753906 60.023438 9.796875 60.050781 9.839844 60.074219 C 9.867188 60.089844 9.890625 60.105469 9.917969 60.121094 C 9.945312 60.136719 9.96875 60.148438 9.992188 60.164062 C 10.035156 60.1875 10.082031 60.210938 10.125 60.234375 C 10.132812 60.242188 10.144531 60.246094 10.152344 60.25 C 12.179688 61.34375 14.578125 61.660156 16.867188 61.066406 C 16.886719 61.058594 16.90625 61.054688 16.925781 61.050781 C 16.964844 61.039062 17 61.027344 17.039062 61.019531 C 17.925781 60.773438 18.753906 60.402344 19.511719 59.925781 L 36.492188 50.121094 C 36.5 50.113281 36.511719 50.105469 36.519531 50.105469 L 36.625 50.042969 L 38.773438 48.800781 C 40.929688 47.109375 42.3125 44.476562 42.3125 41.511719 L 42.3125 34.964844 C 42.316406 34.265625 42.324219 33.5625 42.339844 32.859375 C 42.578125 28.675781 46.007812 24.976562 50.160156 24.417969 C 51.550781 24.207031 52.992188 24.3125 54.335938 24.730469 C 53.980469 24.472656 53.609375 24.242188 53.222656 24.039062 L 19.511719 4.574219 C 18.753906 4.097656 17.925781 3.726562 17.039062 3.480469 C 17 3.472656 16.964844 3.460938 16.925781 3.449219 C 16.90625 3.445312 16.886719 3.441406 16.867188 3.433594 C 16.289062 3.285156 15.707031 3.191406 15.121094 3.15625 Z M 42.3125 38.863281 C 42.316406 39.902344 42.320312 37.824219 42.3125 38.863281 Z M 42.3125 38.863281 "/>
<path style=" stroke:none;fill-rule:nonzero;fill:rgb(49.411765%,34.117648%,76.078433%);fill-opacity:1;" d="M 14.574219 3.136719 C 14.574219 3.140625 14.574219 3.144531 14.574219 3.144531 C 14.566406 3.144531 14.558594 3.144531 14.550781 3.144531 C 9.421875 3.144531 5.292969 7.277344 5.292969 12.40625 L 5.292969 52.09375 C 5.292969 57.222656 9.421875 61.355469 14.550781 61.355469 C 19.683594 61.355469 23.8125 57.222656 23.8125 52.09375 L 23.8125 30.925781 C 23.816406 29.886719 23.816406 28.847656 23.8125 27.808594 L 23.8125 24.382812 C 23.816406 23.679688 23.824219 22.976562 23.839844 22.273438 C 24.078125 18.09375 27.507812 14.390625 31.660156 13.835938 C 33.273438 13.589844 34.953125 13.769531 36.476562 14.371094 C 30.871094 11.144531 25.28125 7.890625 19.667969 4.679688 C 19.335938 4.460938 18.992188 4.261719 18.628906 4.085938 C 18.628906 4.082031 18.628906 4.082031 18.628906 4.082031 C 18.242188 3.894531 17.835938 3.730469 17.421875 3.597656 C 17.414062 3.59375 17.410156 3.59375 17.40625 3.589844 C 17.351562 3.574219 17.300781 3.558594 17.25 3.542969 C 17.207031 3.53125 17.164062 3.515625 17.121094 3.503906 C 17.105469 3.5 17.089844 3.496094 17.074219 3.492188 C 16.261719 3.261719 15.417969 3.140625 14.574219 3.136719 Z M 14.574219 3.136719 "/>
<path style=" stroke:none;fill-rule:nonzero;fill:rgb(100%,79.215688%,15.686275%);fill-opacity:1;" d="M 5.292969 33.574219 L 5.292969 53.417969 L 5.386719 53.417969 C 6.023438 57.914062 9.871094 61.355469 14.550781 61.355469 C 19.683594 61.355469 23.8125 57.222656 23.8125 52.09375 C 23.8125 41.511719 9.261719 45.480469 5.292969 33.574219 Z M 5.292969 33.574219 "/>
</g>
</svg>
